!!!!SEGMENT: pl-stab--10e--003_zebrowski-marcin-jozef--vespere-ex-d-gloria-patri.krn
!!!cenid: 18xx:3419
!!!COM: Żebrowski, Marcin Józef
!!!COM-rismID: pe30020322
!!!CDT: 1702-1770/06/29
!!!CNT: Polish
!!!OPR: Vespere ex D
!!!OTL: Gloria Patri
!!!OMV: 003
!!!PDT: 1801
!!!AGN:
!!!SMS-siglum: PL-STAb
!!!SMS-shelfmark: 10e
!!!SMS-shelfwork: 001-003 M
!!!SMS-variant:
!!!SMS-altvar:
!!!NIFC-rismSourceID: 301050566
!!!NIFC-rismChildID: 301050566
!!!NIFC-islandoraID: pl-stab:2368
!!!URL-pdf-islandora: https://repozytorium.nifc.pl/islandora/object/pl-stab%3A2368/datastream/PDF/view
!!!URL-scan: https://polish.musicsources.pl/pl/lokalizacje/galeria/rekopisy/4401 @EN{Scan on Polish Music Sources Website} @PL{Skany w portalu Dziedzictwo Muzyki Polskiej w otwartym dostępie}
!!!ONB-nifc: UWAGA: części Vespere: 1. Dixit Dominus, 2. Detorente, 3. Gloria Patri (razem z Sicut erat), 4. Magnificat, 5. Gloria Patri (z Sicut erat i Amen)
!!!OMD: Adagio
!!!AIN: 1 bass 2 empty 1 organ 2 violn 1 vox
!!!key:
**kern	**fba	**kern	**kern	**kern	**text	**kern	**text	**kern	**kern
*part7	*part7	*part6	*part5	*part4	*part4	*part3	*part3	*part2	*part1
*staff7	*	*staff6	*staff5	*staff4	*staff4	*staff3	*staff3	*staff2	*staff1
*Iorgan	*	*Ivioln	*Ivioln	*Ibass	*	*Ivox	*	*Iempty	*Iempty
*I"Organo	*	*I"Violino Secundo	*I"Violino Primo	*I"Basso	*	*I"Canto	*	*I"Cornu Secundo	*I"Cornu Primo in D.
*I'org	*	*I'vl 2	*I'vl 1	*I'B	*	*I'C	*	*I'cor	*I'cor 1 in D
*clefF4	*	*clefG2	*clefG2	*clefF4	*	*clefC1	*	*clefG2	*clefG2
*	*	*	*	*	*	*	*	*ITrd6c10	*ITrd6c10
*k[f#c#]	*	*k[f#c#]	*k[f#c#]	*k[f#c#]	*	*k[f#c#]	*	*k[f#c#]	*k[f#c#]
*D:	*	*D:	*D:	*D:	*	*D:	*	*D:	*D:
*M4/4	*	*M4/4	*M4/4	*M4/4	*	*M4/4	*	*M4/4	*M4/4
*met(c)	*	*met(c)	*met(c)	*met(c)	*	*met(c)	*	*met(c)	*met(c)
=1	=1	=1	=1	=1	=1	=1	=1	=1	=1
!	!	!	!	!	!	!	!	!	!LO:TX:t=P:problem=2\right&colon; global
!LO:TX:b:i:t=|	!	!	!	!	!	!	!	!LO:TX:a:t=Detorente et Gloria Tacet	!LO:TX:a:t=Detorente et gloria Tacet
8AA#X/L	6 5	(16f#/LL	(16.ee\LL	8A#X\	Glo-	8.ee\	Glo-	1ryy	1ryy
.	.	16f#/	.	.	.	.	.	.	.
.	.	.	32ccc#\JJk)	.	.	.	.	.	.
!LO:TX:b:i:t=|	!	!	!	!	!	!	!	!	!
8AA#/	.	16f#/	(16.ee\LL	8A#\	-ri-	.	.	.	.
.	.	16f#/JJ)	.	.	.	16ee\	-ri-	.	.
.	.	.	32ccc#\JJk)	.	.	.	.	.	.
!LO:TX:b:i:t=|	!	!	!	!	!	!	!	!	!
8AA#/	.	(16f#/LL	(16.ee\LL	4A#\	-a	4ee\	-a	.	.
.	.	16f#/	.	.	.	.	.	.	.
.	.	.	32ccc#\JJk)	.	.	.	.	.	.
!LO:TX:b:i:t=|	!	!	!	!	!	!	!	!	!
8AA#/J	.	16f#/	(16.ee\LL	.	.	.	.	.	.
.	.	16f#/JJ)	.	.	.	.	.	.	.
.	.	.	32ccc#\JJk)	.	.	.	.	.	.
*tremolo	*	*tremolo	*	*	*	*	*	*	*
!LO:TX:a:t=Tutti	!	!	!	!	!	!	!	!	!
!LO:TX:b:i:t=|	!	!	!	!	!	!	!	!	!
8BB/L	9 4	16f#/LL	(16.ee\LL	4B\	Pa-	4ee\	Pa-	.	.
.	.	16f#/	.	.	.	.	.	.	.
.	.	.	32ccc#\JJk)	.	.	.	.	.	.
!LO:TX:b:i:t=|	!	!	!	!	!	!	!	!	!
8BB/	9 3	16f#/	(16.ee\LL	.	.	.	.	.	.
.	.	16f#/	.	.	.	.	.	.	.
.	.	.	32ccc#\JJk)	.	.	.	.	.	.
!LO:TX:b:i:t=|	!	!	!	!	!	!	!	!	!
8BB/	8 3	16f#/	(16.dd\LL	4B\	-tri	4dd\	-tri	.	.
.	.	16f#/	.	.	.	.	.	.	.
.	.	.	32ccc#\JJk)	.	.	.	.	.	.
!LO:TX:b:i:t=|	!	!	!	!	!	!	!	!	!
8BB/J	.	16f#/	(16.dd\LL	.	.	.	.	.	.
.	.	16f#/JJ	.	.	.	.	.	.	.
.	.	.	32bb\JJk)	.	.	.	.	.	.
=2	=2	=2	=2	=2	=2	=2	=2	=2	=2
*2\right	*	*	*	*2\right	*	*2\right	*	*	*
8F#\L	6 5-	16d/LL	(16.ccn\LL	2F#\	et	2ccn\	et	1ryy	1ryy
.	.	16d/	.	.	.	.	.	.	.
.	.	.	32aa\JJk)	.	.	.	.	.	.
8F#\	.	16d/	(16.cc\LL	.	.	.	.	.	.
.	.	16d/	.	.	.	.	.	.	.
.	.	.	32aa\JJk)	.	.	.	.	.	.
8F#\	.	16d/	(16.cc\LL	.	.	.	.	.	.
.	.	16d/	.	.	.	.	.	.	.
.	.	.	32aa\JJk)	.	.	.	.	.	.
8F#\J	.	16d/	(16.cc\LL	.	.	.	.	.	.
.	.	16d/JJ	.	.	.	.	.	.	.
.	.	.	32aa\JJk)	.	.	.	.	.	.
8G\L	9 4	16d/LL	(16.cc\LL	8.G\	fi-	8.cc\	fi-	.	.
.	.	16d/	.	.	.	.	.	.	.
.	.	.	32aa\JJk)	.	.	.	.	.	.
8G\	9 3	16d/	(16.cc\LL	.	.	.	.	.	.
.	.	16d/	.	16G\	-li-	16cc\	-li-	.	.
.	.	.	32aa\JJk)	.	.	.	.	.	.
8G\	8 3	16d/	(16.b\LL	4G\	-o	4b\	-o	.	.
.	.	16d/	.	.	.	.	.	.	.
.	.	.	32aa\JJk)	.	.	.	.	.	.
8G\J	.	16d/	(16.b\LL	.	.	.	.	.	.
.	.	16d/JJ	.	.	.	.	.	.	.
.	.	.	32gg\JJk)	.	.	.	.	.	.
!!linebreak:original
!	!	!	!LO:LB:g=original	!	!	!	!	!	!
=3	=3	=3	=3	=3	=3	=3	=3	=3	=3
8C#X/L	6 5	16e/LL	(16.a\LL	8.C#X/	et	8.gg\	et	1ryy	1ryy
.	.	16e/	.	.	.	.	.	.	.
.	.	.	32gg\JJk)	.	.	.	.	.	.
8C#/	.	16e/	(16.a\LL	.	.	.	.	.	.
.	.	16e/	.	16C#/	spi-	16gg\	spi-	.	.
.	.	.	32gg\JJk)	.	.	.	.	.	.
8C#/	.	16e/	(16.a\LL	8C#/	-ri-	8gg\	-ri-	.	.
.	.	16e/	.	.	.	.	.	.	.
.	.	.	32gg\JJk)	.	.	.	.	.	.
8C#/J	.	16e/	(16.a\LL	16C#/	-tu-	16gg\	-tu-	.	.
.	.	16e/JJ	.	16C#/	-i	16gg\	-i	.	.
.	.	.	32gg\JJk)	.	.	.	.	.	.
!	!	!	!	!LO:LB:g=original	!	!	!	!	!
8D\L	9 5 4	16e/LL	(16.a\LL	4D/	san-	4gg\	san-	.	.
.	.	16e/	.	.	.	.	.	.	.
.	.	.	32gg\JJk)	.	.	.	.	.	.
8D\	.	16e/	(16.a\LL	.	.	.	.	.	.
.	.	16e/JJ	.	.	.	.	.	.	.
.	.	.	32gg\JJk)	.	.	.	.	.	.
8D\	8 3	16e/LL	(16.a\LL	4D/	-cto	4ff#\	-cto	.	.
.	.	16e/	.	.	.	.	.	.	.
.	.	.	32ff#\JJk)	.	.	.	.	.	.
8D\J	.	16e/	(16.a\LL	.	.	.	.	.	.
.	.	16e/JJ	.	.	.	.	.	.	.
.	.	.	32ff#\JJk)	.	.	.	.	.	.
*Xtremolo	*	*Xtremolo	*	*	*	*	*	*	*
=4	=4	=4	=4	=4	=4	=4	=4	=4	=4
4A\	.	16r	(16.A/LL	2r	.	2r	.	1ryy	1ryy
.	.	16A/LL	.	.	.	.	.	.	.
.	.	.	32c#/JJk)	.	.	.	.	.	.
.	.	16.c#/	(16e/LL	.	.	.	.	.	.
.	.	.	16a/JJ)	.	.	.	.	.	.
.	.	32e/JJk	.	.	.	.	.	.	.
4r	.	16.a\LL	(16cc#\LL	.	.	.	.	.	.
.	.	.	16ee\JJ)	.	.	.	.	.	.
.	.	32cc#\K	.	.	.	.	.	.	.
.	.	16.ee\	(16.gg\LL	.	.	.	.	.	.
.	.	32cc#\JJk	32ee\JJk)	.	.	.	.	.	.
8r	.	8a/ 8e/ 8A/	8a/ 8e/ 8A/	8r	.	8r	.	.	.
8AA/L	7	4ee\	4gg\	16E\	et	16cc#\	et	.	.
.	.	.	.	16E\	spi-	16cc#\	spi-	.	.
!LO:TX:b:i:t=|	!	!	!	!	!	!	!	!	!
8AA/	.	.	.	8E\	-ri-	8cc#\	-ri-	.	.
!LO:TX:b:i:t=|	!	!	!	!	!	!	!	!	!
8AA/J	.	(16dd\LL	(16ff#\LL	(16F#\LL	-tu-	16dd\LL	-tui	.	.
.	.	16cc#\JJ)	16ee\JJ)	16G\JJ)	.	16ee\JJ	San-	.	.
!!pagebreak:original
!	!	!LO:LB:g=original	!	!	!	!LO:LB:g=original	!	!	!
=5	=5	=5	=5	=5	=5	=5	=5	=5	=5
!	!	!	!LO:TX:t=P:problem=brak miary w takcie	!	!	!	!	!	!
4AA/	6 4	16r	16.A/LL	4F#\	-i	4dd\	-cto	1ryy	1ryy
.	.	16A/LL	.	.	.	.	.	.	.
.	.	.	32c#/JJk	.	.	.	.	.	.
.	.	16.d/	16.f#/LL	.	.	.	.	.	.
.	.	32f#/JJk	32a/JJk	.	.	.	.	.	.
4r	.	16.a\LL	16.dd\LL	4r	.	4r	.	.	.
.	.	32dd\K	32ff#\JJk	.	.	.	.	.	.
.	.	16.ff#\	16.aa\LL	.	.	.	.	.	.
.	.	32dd\JJk	32ff#\JJk	.	.	.	.	.	.
8r	.	8a/ 8e/ 8A/	8ryy	8r	.	8r	.	.	.
!LO:TX:b:i:t=|	!	!	!	!	!	!	!	!	!
*	*	*	*	*	*ij	*	*	*	*
8AA/L	6 4	4ff#\	4aa\	16F#\	et	16dd\	et	.	.
.	.	.	.	16F#\	spi-	16dd\	spi-	.	.
!LO:TX:b:i:t=|	!	!	!	!	!	!	!	!	!
8AA/	.	.	.	8F#\	-ri-	8dd\	-ri-	.	.
!LO:TX:b:i:t=|	!	!	!	!	!	!	!	!	!
8AA/J	.	(16ee\LL	(16gg\LL	16G\LL	-tu-	16ee\LL	-tu-	.	.
.	.	16dd\JJ)	16ff#\JJ)	16A\JJ	.	16ff#\JJ	-i	.	.
!	!	!	!LO:LB:g=original	!	!	!	!	!	!
=6	=6	=6	=6	=6	=6	=6	=6	=6	=6
.	.	.	.	.	.	8qqdd/	.	.	.
4AA/	7 3	16r	16.A/LL	4E\	-i	4cc#\	i	1ryy	1ryy
.	.	16A/LL	.	.	.	.	.	.	.
.	.	.	32c#/JJk	.	.	.	.	.	.
.	.	16.c#/	16.e/LL	.	.	.	.	.	.
.	.	32e/JJk	32a/JJk	.	.	.	.	.	.
4r	.	16.a\LL	16.cc#\LL	4r	.	4r	.	.	.
.	.	32cc#\K	32ee\JJk	.	.	.	.	.	.
.	.	16.ee\	16.gg\LL	.	.	.	.	.	.
.	.	32cc#\JJk	32ee\JJk	.	.	.	.	.	.
8r	.	8a/ 8e/ 8A/	8a/ 8e/ 8A/	8r	.	8r	.	.	.
8AA/L	7	(16gg\LL	(16bb\LL	16E\	et	16cc#\	et	.	.
!	!	!	!	!LO:LB:g=original	!	!	!	!	!
.	.	16ee\JJ)	16gg\JJ)	16E\	spi-	16cc#\	spi-	.	.
8AA/	.	(16gg\LL	(16bb\LL	8E\	-ri-	8cc#\	-ri-	.	.
.	.	16ee\)	16gg\)	.	.	.	.	.	.
8AA/J	.	(16dd\	(16ff#\	16F#\	-tu-	16dd\	-tu-	.	.
.	.	16cc#\JJ)	16ee\JJ)	16G\	-i	16ee\	-i	.	.
!!linebreak:original
*	*	*	*	*	*Xij	*	*	*	*
=7	=7	=7	=7	=7	=7	=7	=7	=7	=7
*	*	*^	*	*	*	*	*	*	*
8D/L	.	(8dd\L	2ryy	8ff#/ 8a/ 8d/	(8F#\L	et	(8dd\L	san-	1ryy	1ryy
!	!	!	!	!LO:TUP:a:global:problem=klamra łukowa i 3	!	!	!	!	!	!
8AA/	.	16.cc#\L)	.	24ee\LL	8D\J)	.	8cc#\J)	.	.	.
.	.	.	.	24a\	.	.	.	.	.	.
.	.	.	.	24ee\JJ	.	.	.	.	.	.
.	.	32cc#\JJk	.	.	.	.	.	.	.	.
8AA/	6 4	16dd\LL	.	24ff#\LL	(8F#\L	spi-	(8dd\L	.	.	.
.	.	.	.	24a\	.	.	.	.	.	.
.	.	16dd\	.	.	.	.	.	.	.	.
.	.	.	.	24ff#\JJ	.	.	.	.	.	.
8AA/J	7# 4 2	16b\	.	24gg#X\LL	8G#X\J)	-ri-	8b\J)	.	.	.
.	.	.	.	24a\	.	.	.	.	.	.
.	.	16b\JJ	.	.	.	.	.	.	.	.
.	.	.	.	24gg#\JJ	.	.	.	.	.	.
*tremolo	*	*	*	*	*	*	*	*	*	*
8AA/L	8 5 3	16ee/LL	16cc#\LL	24aa\LL	(8A\L	-tu-	4cc#\	.	.	.
.	.	.	.	24a\	.	.	.	.	.	.
.	.	16ee/	16cc#\	.	.	.	.	.	.	.
.	.	.	.	24aa\JJ	.	.	.	.	.	.
8AA/	5 3	16ee/	16cc#\	24ee\LL	8E\J)	.	.	.	.	.
.	.	.	.	24a\	.	.	.	.	.	.
.	.	16ee/JJ	16cc#\JJ	.	.	.	.	.	.	.
.	.	.	.	24ee\JJ	.	.	.	.	.	.
8AA/	6 4	16dd\LL	4ryy	24ff#\LL	(8F#\L	-i	(8dd\L	.	.	.
.	.	.	.	24a\	.	.	.	.	.	.
.	.	16dd\	.	.	.	.	.	.	.	.
.	.	.	.	24ff#\JJ	.	.	.	.	.	.
8AA/J	7# 2	16b\	.	24gg#X\LL	8G#X\J)	.	8b\J)	.	.	.
.	.	.	.	24a\	.	.	.	.	.	.
.	.	16b\JJ	.	.	.	.	.	.	.	.
.	.	.	.	24gg#\JJ	.	.	.	.	.	.
!LO:LB:g=original	!	!LO:LB:g=original	!	!	!	!	!	!	!	!
=8	=8	=8	=8	=8	=8	=8	=8	=8	=8	=8
8AA/L	8 5 3	16ee/LL	16cc#\LL	24aa\LL	(8A\L	san-	4cc#\	.	1ryy	1ryy
.	.	.	.	24a\	.	.	.	.	.	.
.	.	16ee/	16cc#\	.	.	.	.	.	.	.
.	.	.	.	24aa\JJ	.	.	.	.	.	.
8AA/	5 3	16ee/	16cc#\	24ee\LL	8E\J)	.	.	.	.	.
.	.	.	.	24a\	.	.	.	.	.	.
.	.	16ee/JJ	16cc#\JJ	.	.	.	.	.	.	.
.	.	.	.	24ee\JJ	.	.	.	.	.	.
8AA/	6 4	16dd\LL	4ryy	24ff#\LL	(8F#\L	.	8dd\L	.	.	.
.	.	.	.	24a\	.	.	.	.	.	.
.	.	16dd\	.	.	.	.	.	.	.	.
.	.	.	.	24ff#\JJ	.	.	.	.	.	.
8AA/J	7# 2	16b\	.	24gg#X\LL	8G#X\J)	.	8b\J	.	.	.
.	.	.	.	24a\	.	.	.	.	.	.
.	.	16b\JJ	.	.	.	.	.	.	.	.
.	.	.	.	24gg#\JJ	.	.	.	.	.	.
!	!	!	!	!	!LO:TX:b:i:t=Volti ſubito ſicut erat	!	!	!	!	!
.	.	.	.	.	8qqG#X/	.	8qqb/	.	.	.
*Xtremolo	*	*	*2\right	*2\right	*	*	*	*	*	*
2AA;</	8 5 3	2ee/	2cc#\	2aa\	2A\	-cto	2cc#\	-cto	.	.
*	*	*v	*v	*	*	*	*	*	*	*
!	!	!	!LO:LB:g=original	!LO:PB:g=original	!	!LO:LB:g=original	!	!	!
=9||	=9||	=9||	=9||	=9||	=9||	=9||	=9||	=9||	=9||
*k[f#c#]	*	*k[f#c#]	*k[f#c#]	*k[f#c#]	*	*k[f#c#]	*	*k[f#c#]	*k[f#c#]
*M3/8	*	*M3/8	*M3/8	*M3/8	*	*M3/8	*	*M3/8	*M3/8
!LO:TX:rj:a:t=allo Aſsai	!	!	!	!	!	!	!	!	!
!LO:TX:a:t=Tutti	!	!LO:TX:rj:a:t=allo Aſsai	!LO:TX:rj:a:t=allo Aſsai	!LO:TX:rj:a:t=allo Aſsai	!	!LO:TX:rj:a:t=allo Aſsai	!	!LO:TX:rj:a:t=allo	!LO:TX:rj:t=Allo
4.D\	.	4.r	8r	4.D\	Si-	8r	.	4.d\	4.f#\
.	.	.	8f#/L	.	.	8f#/	Si-	.	.
.	.	.	8dd/J	.	.	8dd\	-cut	.	.
!LO:LB:g=original	!	!	!	!	!	!	!	!	!
=10	=10	=10	=10	=10	=10	=10	=10	=10	=10
4.E\	7	8r	8dd\L	4.E\	-cut	8dd\	e-	4.A/	4.e\
!	!	!LO:TX:t=P:mixedbeam:problem	!	!	!	!	!	!	!
.	.	8g/L	16cc#\L	.	.	16cc#\LL	.	.	.
.	6	.	16b\J	.	.	16b\JJ	.	.	.
.	.	8ee\J	8cc#\J	.	.	8cc#\	-rat	.	.
=11	=11	=11	=11	=11	=11	=11	=11	=11	=11
4.F#\	7	8ee\L	8r	4.F#\	e-	8r	.	4.d\	4.f#\
.	.	16dd\L	8a\L	.	.	8a\	Si-	.	.
.	6	16cc#\J	.	.	.	.	.	.	.
.	.	8dd\J	8ff#\J	.	.	8ff#\	-cut	.	.
=12	=12	=12	=12	=12	=12	=12	=12	=12	=12
4.G\	7	8r	8ff#\L	4G\	-rat	8ff#\	e-	4.A/	4.e\
.	.	8b\L	16ee\L	.	.	16ee\LL	.	.	.
.	6	.	16dd\J	.	.	16dd\JJ	.	.	.
.	.	8gg\J	8ee\J	8r	.	8ee\	-rat	.	.
=13	=13	=13	=13	=13	=13	=13	=13	=13	=13
!	!	!	!	!	!	!	!	!LO:TX:a:t=2	!LO:TX:a:t=2
4.A\	7	8gg\L	8r	4A\	e-	8r	.	2.r	2.r
.	.	16ff#\L	8cc#\L	.	.	8cc#\	Si-	.	.
.	6	16ee\J	.	.	.	.	.	.	.
.	.	8ff#\J	8aa\J	8A\	-rat	8aa\	-cut	.	.
=14	=14	=14	=14	=14	=14	=14	=14	=14	=14
4B\	7	4dd\	8aa\L	4B\	in	8aa\	e-	.	.
.	6	.	16gg\L	.	.	16gg\LL	.	.	.
.	.	.	16ff#\J	.	.	16ff#\JJ	.	.	.
8c#\	6 5	16ee\LL	8gg\J	8c#\	prin-	8gg\	-rat	.	.
.	.	16cc#\JJ	.	.	.	.	.	.	.
!	!	!	!	!	!	!LO:LB:g=original	!	!	!
=15	=15	=15	=15	=15	=15	=15	=15	=15	=15
!	!	!	!	!	!	!	!	!LO:SIC:o:s:v:t=dźwięki rogu w tym takcie nie pasują do reszty	!LO:SIC:o:s:v:t=dźwięki rogu w tym takcie nie pasują do reszty
!	!	!	!	!	!	!	!	!LO:TX:t=P:problem=mixedbeam	!LO:SIC:s:o:v=za dużo miar w takcie
8d\L	3	8a/L	8ff#\L	8d\L	-ci-	8ff#\	in	8d\L	8e\L
8c#\	6	8a/	8ee\	8c#\J	.	8ee\	prin-	8A/	8e\J
!	!	!	!	!	!	!	!	!	!LO:N:vis=4
8B\J	6\	8g#X/J	8ff#\J	8B\	-pi-	16dd\	-ci-	8F#/J	8d\
.	.	.	.	.	.	16dd\	-pi-	.	.
=16	=16	=16	=16	=16	=16	=16	=16	=16	=16
.	.	.	8qqgg#X/	.	.	16qqdd/	.	.	.
8A\	.	8r	4aa\	8A\	-o	4cc#\	-o	4A/	4a\
4AA/	.	8c#/L	.	8r	.	.	.	.	.
.	.	8a/J	8r	8r	.	8r	.	8r	8r
!	!	!	!LO:LB:g=original	!LO:LB:g=original	!	!	!	!	!
=17	=17	=17	=17	=17	=17	=17	=17	=17	=17
!	!	!	!	!	!	!	!	!LO:TX:a:t=10	!LO:TX:a:t=10
4.BB/	7	8a/L	8r	4.BB/	et	8r	.	1.r	1.r
.	.	16g#X/L	8d/L	.	.	8d/	nunc	.	.
.	6\	16f#/J	.	.	.	.	.	.	.
.	.	8g#X/J	8b/J	.	.	8b\	et	.	.
!	!	!LO:LB:g=original	!	!	!	!	!	!	!
=18	=18	=18	=18	=18	=18	=18	=18	=18	=18
4.C#/	7	8r	8b/L	4.C#/	nunc	8b\	sem-	.	.
!	!	!LO:TX:t=P:problem=mixedbeam	!	!	!	!	!	!	!
.	.	8e/L	16a/L	.	.	16a\LL	.	.	.
.	6	.	16g#X/J	.	.	16g#X\JJ	.	.	.
.	.	8cc#\J	8a/J	.	.	8a\	-per	.	.
=19	=19	=19	=19	=19	=19	=19	=19	=19	=19
4.D\	7	8cc#/L	8r	4.D/	et	8r	.	.	.
!	!	!	!LO:TX:t=P:problem=mixedbeam	!	!	!	!	!	!
.	.	16b/L	8f#/L	.	.	8f#/	nunc	.	.
.	6	16a/J	.	.	.	.	.	.	.
.	.	8b/J	8dd\J	.	.	8dd\	et	.	.
!!linebreak:original
=20	=20	=20	=20	=20	=20	=20	=20	=20	=20
4.E\	7 3	8r	8dd\L	4.E\	sem-	8dd\	sem-	.	.
!	!	!LO:TX:t=P:problem=mixedbeam	!	!	!	!	!	!	!
.	.	8g#X/L	16cc#\L	.	.	(16cc#\LL	.	.	.
.	6 #	.	16b\J	.	.	16b\JJ)	.	.	.
.	.	8ee\J	8cc#\J	.	.	8cc#\	-per	.	.
=21	=21	=21	=21	=21	=21	=21	=21	=21	=21
4F#\	7	8ee\L	4a/	4F#\	-per	4a\	nunc	1.r	1.r
.	6	16dd\L	.	.	.	.	.	.	.
.	.	16cc#\J	.	.	.	.	.	.	.
*	*	*	*	*	*ij	*	*	*	*
8G#X\	6 5	8dd\J	8b\	8G#X\	et	8b\	et	.	.
!LO:LB:g=original	!	!	!	!	!	!	!	!	!
=22	=22	=22	=22	=22	=22	=22	=22	=22	=22
!	!	!	!LO:TX:t=P:problem=mixedbeam	!	!	!	!	!	!
16A\LL	.	8cc#\L	8e/L	16A\LL	nunc	16cc#\LL	sem-	.	.
16Gn\J	.	.	.	16Gn\JJ	.	16b\JJ	.	.	.
8F#\	6	16b\L	8dd\	8F#\L	et	8a\L	.	.	.
.	.	16a\J	.	.	.	.	.	.	.
8E\J	6	8gn\J	8cc#\J	8E\J	sem-	8gn\J	.	.	.
!	!	!	!	!	!	!LO:LB:g=original	!	!	!
=23	=23	=23	=23	=23	=23	=23	=23	=23	=23
*	*	*^	*	*	*	*	*	*	*
!LO:TX:a:t=|	!	!	!	!	!	!	!	!	!	!
8D\L	.	4.a/	4.f#\	8ff#/ 8a/ 8d/	4D\	-per	4f#/	-per	.	.
*	*	*	*	*	*	*Xij	*	*	*	*
!LO:TX:a:t=|	!	!	!	!	!	!	!	!	!	!
8F#\	.	.	.	4ff#\	.	.	.	.	.	.
!LO:TX:a:t=|	!	!	!	!	!	!	!	!	!	!
8d\J	.	.	.	.	8r	.	8r	.	.	.
*	*	*v	*v	*	*	*	*	*	*	*
=24	=24	=24	=24	=24	=24	=24	=24	=24	=24
!	!	!LO:TX:t=P:problem=mixedbeam	!	!LO:TX:a:t=3	!	!LO:TX:a:t=3	!	!	!
8d\L	4# 2	8e/L	4gg#X\	2.r	.	2.r	.	.	.
16c#\L	.	16ee\L	.	.	.	.	.	.	.
16B\J	.	16dd\J	.	.	.	.	.	.	.
8c#\J	6	8ee\J	8aa\	.	.	.	.	.	.
=25	=25	=25	=25	=25	=25	=25	=25	=25	=25
4G#X\	6 5	8r	8bb\L	.	.	.	.	2.r	2.r
.	.	8b/L	8dd\	.	.	.	.	.	.
8A\	3	8a/J	8b\J	.	.	.	.	.	.
=26	=26	=26	=26	=26	=26	=26	=26	=26	=26
!LO:TX:t=P:problem=mixedbeam	!	!	!	!	!	!	!	!	!
8E\L	6 4	8a/L	(8cc#\L	4.r	.	4.r	.	.	.
8EE/J	5 3#	(16g#X/L	16b\L)	.	.	.	.	.	.
!	!	!	!LO:TX:a:t=|	!	!	!	!	!	!
.	.	16f#/	16a\	.	.	.	.	.	.
!	!	!	!LO:TX:a:t=|	!	!	!	!	!	!
8r	.	16g#/	16b\	.	.	.	.	.	.
!	!	!	!LO:TX:a:t=|	!	!	!	!	!	!
.	.	16a/JJ)	16cc#\JJ	.	.	.	.	.	.
!	!	!LO:LB:g=original	!LO:LB:g=original	!	!	!	!	!	!
=27	=27	=27	=27	=27	=27	=27	=27	=27	=27
!	!	!	!LO:TX:a:t=|	!	!	!	!	!	!
8E\	7 3#	(16b/LL	8dd\L	4.E\	et	8b\L	et	4.e\	4.e\
.	.	16e/)	.	.	.	.	.	.	.
!	!	!	!LO:TX:a:t=|	!	!	!	!	!	!
8r	.	(16dd/	8ff#\	.	.	8dd\J	.	.	.
.	.	16d/)	.	.	.	.	.	.	.
!	!	!	!LO:TX:a:t=|	!	!	!	!	!	!
8E\	7 3#	(16b/	8dd\J	.	.	8b\	in	.	.
.	.	16e/JJ)	.	.	.	.	.	.	.
=28	=28	=28	=28	=28	=28	=28	=28	=28	=28
!	!	!	!LO:TX:a:t=|	!	!	!	!	!	!
8E\	6 4	(16a/LL	8cc#\L	4.E\	in	(8a\L	se-	4.e\	4.e\
.	.	16e/)	.	.	.	.	.	.	.
!	!	!	!LO:TX:a:t=|	!	!	!	!	!	!
8r	.	(16cc#/	8ee\	.	.	8b\)	.	.	.
.	.	16e/)	.	.	.	.	.	.	.
!	!	!	!LO:TX:a:t=|	!	!	!	!	!	!
8E\	6 4	(16a/	8cc#\J	.	.	8a\J	.	.	.
.	.	16e/JJ)	.	.	.	.	.	.	.
=29	=29	=29	=29	=29	=29	=29	=29	=29	=29
!	!	!	!LO:TX:a:t=|	!	!	!	!	!	!
8E\	5 3#	(16g#X/LL	8b\L	4E\	se-	8g#X\	.	4.e\	4.e\
.	.	16e/	.	.	.	.	.	.	.
!	!	!	!LO:TX:a:t=|	!	!	!	!	!	!
8r	.	16b/	8dd\	.	.	8b\	.	.	.
.	.	16e/	.	.	.	.	.	.	.
!	!	!	!LO:TX:a:t=|	!	!	!	!	!	!
8E\	5 3#	16g#X/	8b\J	8E\	-cu-	8g#\	-cu-	.	.
.	.	16e/JJ)	.	.	.	.	.	.	.
!!pagebreak:original
!	!	!	!	!	!	!	!	!LO:LB:g=original	!
=30	=30	=30	=30	=30	=30	=30	=30	=30	=30
!	!	!	!LO:TX:a:t=|	!	!	!	!	!	!
8E\	6 4	16a/LL	8cc#\L	4.E\	-la	8a\L	-la	4.e\	4.e\
.	.	(16e/	.	.	.	.	.	.	.
!	!	!	!LO:TX:a:t=|	!	!	!	!	!	!
8r	.	16cc#/	8ee\	.	.	8cc#\	.	.	.
.	.	16e/	.	.	.	.	.	.	.
!	!	!	!LO:TX:a:t=|	!	!	!	!	!	!
8E\	6 4	16a/	8cc#\J	.	.	8a\J	.	.	.
.	.	16e/JJ)	.	.	.	.	.	.	.
=31	=31	=31	=31	=31	=31	=31	=31	=31	=31
!	!	!	!LO:TX:a:t=|	!	!	!	!	!	!
8E\	7 3#	16b/LL	8dd\L	4.E\	se-	8b\L	se-	4.e\	4.e\
.	.	(16e/	.	.	.	.	.	.	.
!	!	!	!LO:TX:a:t=|	!	!	!	!	!	!
8r	.	16dd/	8ff#\	.	.	8dd\	.	.	.
.	.	16d/	.	.	.	.	.	.	.
!	!	!	!LO:TX:a:t=|	!	!	!	!	!	!
8E\	7 3#	16b/	8dd\J	.	.	8b\J	-cu-	.	.
.	.	16e/JJ)	.	.	.	.	.	.	.
!	!	!	!	!LO:LB:g=original	!	!	!	!	!LO:LB:g=original
=32	=32	=32	=32	=32	=32	=32	=32	=32	=32
!	!	!	!LO:TX:a:t=|	!	!	!	!	!	!
8E\	6 4	16a/LL	8cc#\L	4.E\	-cu-lo-	8a\L	-lo-	4.e\	4.e\
.	.	(16e/	.	.	.	.	.	.	.
!	!	!	!LO:TX:a:t=|	!	!	!	!	!	!
8r	.	16cc#/	8ee\	.	.	8cc#\	.	.	.
.	.	16e/	.	.	.	.	.	.	.
!	!	!	!LO:TX:a:t=|	!	!	!	!	!	!
8E\	6 4	16a/	8cc#\J	.	.	8a\J	.	.	.
.	.	16e/JJ)	.	.	.	.	.	.	.
!LO:LB:g=original	!	!	!	!	!	!	!	!	!
=33	=33	=33	=33	=33	=33	=33	=33	=33	=33
!	!	!	!LO:TX:a:t=|	!	!	!	!	!	!
8E\	5 3#	16g#X/LL	8b\L	4.E\	-rum	8g#X\L	.	4.e\	4.e\
.	.	(16e/	.	.	.	.	.	.	.
!	!	!	!LO:TX:a:t=|	!	!	!	!	!	!
8r	.	16b/	8dd\	.	.	8b\	.	.	.
.	.	16e/	.	.	.	.	.	.	.
!	!	!	!LO:TX:a:t=|	!	!	!	!	!	!
8E\	7 3#	16g#X/	8b\J	.	.	8g#\J	.	.	.
.	.	16e/JJ)	.	.	.	.	.	.	.
!	!	!LO:LB:g=original	!	!	!	!	!	!	!
=34	=34	=34	=34	=34	=34	=34	=34	=34	=34
!	!	!	!LO:TX:a:t=|	!	!	!	!	!	!
8E\	6 4	16a/LL	8cc#\L	4.E\	.	8a\L	.	4.e\	4.e\
.	.	(16e/	.	.	.	.	.	.	.
!	!	!	!LO:TX:a:t=|	!	!	!	!	!	!
8r	.	16cc#/	8ee\	.	.	8cc#\	.	.	.
.	.	16e/	.	.	.	.	.	.	.
!	!	!	!LO:TX:a:t=|	!	!	!	!	!	!
8E\	6 4	16a/	8cc#\J	.	.	8a\J	-rum	.	.
.	.	16e/JJ)	.	.	.	.	.	.	.
!	!	!	!	!	!	!LO:LB:g=original	!	!	!
=35	=35	=35	=35	=35	=35	=35	=35	=35	=35
!	!	!	!	!	!	!	!	!LO:SIC:o:s:v:t=brak nuty/taktu,żeby się zgadzało	!
4.E\	7 3#	(16b\LL	(16dd\LL	4.E\	a-	4.g#X/	a-	4.ryy	4d\
.	.	16a\	16cc#\	.	.	.	.	.	.
.	.	16b\	16dd\)	.	.	.	.	.	.
!	!	!	!LO:TX:a:t=|	!	!	!	!	!	!
.	.	16cc#\)	16ee\	.	.	.	.	.	.
!	!	!LO:TX:a:t=|	!LO:TX:a:t=|	!	!	!	!	!	!
.	.	16dd\	16ff#\	.	.	.	.	.	8r
!	!	!LO:TX:a:t=|	!LO:TX:a:t=|	!	!	!	!	!	!
.	.	16cc#\JJ	16gg#X\JJ	.	.	.	.	.	.
!	!	!	!LO:LB:g=original	!	!	!	!	!	!
=36	=36	=36	=36	=36	=36	=36	=36	=36	=36
4F#\	5	4a/	(8aa\L	4F#\	.	4a\	.	4d\	4d\
.	.	.	16gg#X\L)	.	.	.	.	.	.
!	!	!	!LO:TX:a:t=|	!	!	!	!	!	!
.	.	.	16ff#\	.	.	.	.	.	.
8G#X\	6 5	8b/	16ee'\	8G#X\	-men	8b\	-men	8d\	8e\
.	.	.	16dd'\JJ	.	.	.	.	.	.
=37	=37	=37	=37	=37	=37	=37	=37	=37	=37
8A\L	.	8e/L	8cc#\L	8A\	a-	8cc#\	a-	8F#/L	8d\L
.	.	8qqcc#/	8qqee/	.	.	.	.	.	.
8D\	6	8b/	8dd\	8D\L	.	8dd\	.	8A/	8e\
.	.	8qqa/	8qqcc#/	.	.	.	.	.	.
8E\J	3#	8g#X/J	8b\J	8E\J	.	8b\	.	8A/J	8e\J
!!linebreak:original
=38	=38	=38	=38	=38	=38	=38	=38	=38	=38
.	.	8qqg/	8qqb/	.	.	.	.	.	.
(16A\LL	.	4a/	4a/	4AA/	-men	4a\	-men	4A/	4a\
16c#\	.	.	.	.	.	.	.	.	.
16B\	.	.	.	.	.	.	.	.	.
!LO:TX:a:t=|	!	!	!	!	!	!	!	!	!
16A\)	.	.	.	.	.	.	.	.	.
!LO:TX:a:t=|	!	!	!	!	!	!	!	!	!
16G#X\	.	8r	8r	8r	.	8r	.	8r	8r
!LO:TX:a:t=|	!	!	!	!	!	!	!	!	!
16F#\JJ	.	.	.	.	.	.	.	.	.
=39	=39	=39	=39	=39	=39	=39	=39	=39	=39
4.E\	7 3#	(16b\LL	(8dd\L	4.E\	a-	4.dd\	a-	4e\	4e\
.	.	16ee\	.	.	.	.	.	.	.
.	.	16dd\	8b\)	.	.	.	.	.	.
.	.	16ee\	.	.	.	.	.	.	.
!	!	!	!LO:TX:a:t=|	!	!	!	!	!	!
.	.	16dd\	8g#X\J	.	.	.	.	8r	8r
.	.	16ee\JJ)	.	.	.	.	.	.	.
=40	=40	=40	=40	=40	=40	=40	=40	=40	=40
4AA/	.	16cc#\LL	(8a\L	4A\	-men	4cc#\	-men	4e\	4e\
.	.	(16ee\	.	.	.	.	.	.	.
.	.	16cc#\	8cc#\)	.	.	.	.	.	.
.	.	16ee\	.	.	.	.	.	.	.
!	!	!	!LO:TX:a:t=|	!	!	!	!	!	!
8r	.	16cc#\)	8ee\J	8r	.	8r	.	8r	8r
.	.	16ee\JJ	.	.	.	.	.	.	.
=41	=41	=41	=41	=41	=41	=41	=41	=41	=41
*	*	*	*	*	*ij	*	*ij	*	*
4.E\	7 3#	(16b\LL	(8dd\L	4.E\	a-	4.gg#X\	a-	4e\	4e\
.	.	16ee\	.	.	.	.	.	.	.
.	.	16dd\	8b\)	.	.	.	.	.	.
.	.	16ee\	.	.	.	.	.	.	.
!	!	!	!LO:TX:a:t=|	!	!	!	!	!	!
.	.	16dd\)	8g#X\J	.	.	.	.	8r	8r
.	.	16ee\JJ	.	.	.	.	.	.	.
!	!	!LO:LB:g=original	!	!	!	!	!	!	!
=42	=42	=42	=42	=42	=42	=42	=42	=42	=42
4AA/	.	(16cc#\LL	(8a\L	4A\	-men	4aa\	-men	4e\	4e\
*	*	*	*	*	*Xij	*	*Xij	*	*
.	.	16ee\	.	.	.	.	.	.	.
.	.	16cc#\	8cc#\)	.	.	.	.	.	.
.	.	16ee\	.	.	.	.	.	.	.
!	!	!	!LO:TX:a:t=|	!	!	!	!	!	!
8r	.	16cc#\	8ee\J	8r	.	8r	.	8r	8r
.	.	16ee\JJ)	.	.	.	.	.	.	.
=43	=43	=43	=43	=43	=43	=43	=43	=43	=43
8E\L	7 3#	(16b\LL	8dd\L	4.E\	a-	4dd\	a-	4e\	4e\
.	.	16ee\	.	.	.	.	.	.	.
!LO:TX:a:t=|	!	!	!	!	!	!	!	!	!
8E\	.	16dd\	8b\	.	.	.	.	.	.
.	.	16ee\	.	.	.	.	.	.	.
!LO:TX:a:t=|	!	!	!	!	!	!	!	!	!
8E\J	.	16dd\	8g#X\J	.	.	8b\	.	8r	8r
.	.	16ee\JJ)	.	.	.	.	.	.	.
=44	=44	=44	=44	=44	=44	=44	=44	=44	=44
!	!	!	!	!	!	!	!	!LO:TX:a:t=6	!LO:TX:a:t=6
.	.	.	8qqg/	.	.	.	.	.	.
4.AA/	.	8cc#\L	4a/	4AA/	-men	4cc#\	-men	1.r	1.r
.	.	8cc#\	.	.	.	.	.	.	.
.	.	8aa\J	8cc#\	8r	.	8r	.	.	.
=45	=45	=45	=45	=45	=45	=45	=45	=45	=45
!	!	!	!	!LO:TX:a:t=9	!	!LO:TX:a:t=9	!	!	!
4BB/	7 6n	8aa\L	4dd\	1.r	.	1.r	.	.	.
.	.	16ggn\L	.	.	.	.	.	.	.
.	.	16ff#\J	.	.	.	.	.	.	.
8C#/	6 5	8gg\J	8ee\	.	.	.	.	.	.
!LO:LB;g=original	!	!	!LO:LB:g=original	!	!	!	!	!	!
=46	=46	=46	=46	=46	=46	=46	=46	=46	=46
!	!	!	!LO:TX:t=P:problem=mixedbeam	!	!	!	!	!	!
4.D\	.	4ff#/ 4a/ 4d/	8a/L	.	.	.	.	.	.
.	.	.	8ff#\	.	.	.	.	.	.
.	.	8ff#/	8ddd\J	.	.	.	.	.	.
!!pagebreak:original
=47	=47	=47	=47	=47	=47	=47	=47	=47	=47
4E\	7	4gg\	8ddd\L	.	.	.	.	.	.
.	6n	.	16cccn\L	.	.	.	.	.	.
.	.	.	16bb\	.	.	.	.	.	.
8F#\	6 5n	8aa\	16bb\	.	.	.	.	.	.
.	.	.	16cccn\JJ	.	.	.	.	.	.
=48	=48	=48	=48	=48	=48	=48	=48	=48	=48
4.G\	4n 9	8aa\L	8cccn\L	.	.	.	.	2.r	2.r
.	.	(16gg\L	16bb\L	.	.	.	.	.	.
.	7 8	16ff#\J)	16aa#X\J	.	.	.	.	.	.
.	.	8gg\J	8bb\J	.	.	.	.	.	.
=49	=49	=49	=49	=49	=49	=49	=49	=49	=49
4.D/	6 4	8gg\L	8bb\L	1.r	.	1.r	.	.	.
.	.	(16ff#\L	16aa\L	.	.	.	.	.	.
.	5 3	16ee\J)	16gg#X\J	.	.	.	.	.	.
.	.	8ff#\J	8bb\J	.	.	.	.	.	.
!	!	!	!	!	!	!	!	!LO:LB:g=original	!
=50	=50	=50	=50	=50	=50	=50	=50	=50	=50
!	!	!	!LO:TX:t=P:problem=mixedbeam	!	!	!	!	!	!
8r	.	8r	8a/L	.	.	.	.	4A/	4a\
!LO:TX:b:i:t=|	!	!	!	!	!	!	!	!	!
8C#/L	6 5	8ee\L	(8ggn\	.	.	.	.	.	.
!LO:TX:b:i:t=|	!	!	!	!	!	!	!	!	!
8D/J	.	8dd\J	8ff#\J)	.	.	.	.	8r	8r
!	!	!LO:LB:g=original	!	!	!	!	!	!	!LO:LB:g=original
=51	=51	=51	=51	=51	=51	=51	=51	=51	=51
8r	.	8r	8a/L	.	.	.	.	4A/	4a\
!LO:TX:a:t=|	!	!	!	!	!	!	!	!	!
8E\L	6	(8gg\L	8ccc#X\	.	.	.	.	.	.
8D\J	5	8ff#\J)	8ddd\J	.	.	.	.	8r	8r
=52	=52	=52	=52	=52	=52	=52	=52	=52	=52
!	!	!	!LO:TX:t=P:problem=mixedbeam	!	!	!	!	!	!
!	!	!	!LO:TX:b:i:t=|	!	!	!	!	!	!
8r	.	8r	8a/L	.	.	.	.	4A/	4a\
!LO:TX:b:i:t=|	!	!	!	!	!	!	!	!	!
8C#/L	6 5	(8ee\L	(8gg\	.	.	.	.	.	.
!LO:TX:b:i:t=|	!	!	!LO:SIC:v:s=8ff#	!	!	!	!	!	!
8D/J	.	8dd\J)	8ee\J)	.	.	.	.	8r	8r
=53	=53	=53	=53	=53	=53	=53	=53	=53	=53
!LO:TX:t=P:problem=mixedbeam	!	!	!LO:TX:a:t=|	!	!	!	!	!	!
8A\L	6 4	8dd\L	8ff#\L	4.r	.	4.r	.	4A/	4a\
8AA/J	5 3	16cc#\L	16ee\L	.	.	.	.	.	.
.	.	16b\	(16dd\	.	.	.	.	.	.
8r	.	16cc#\	16ee\	.	.	.	.	8r	8r
.	.	16dd\JJ	16ff#\JJ)	.	.	.	.	.	.
!	!	!	!LO:LB:g=original	!LO:LB:g=original	!	!	!	!	!
=54	=54	=54	=54	=54	=54	=54	=54	=54	=54
!	!	!LO:TX:b:i:t=|	!	!	!	!	!	!	!
8AA/	7	8e/L	(16gg\LL	[4.A\	a-	8ee\L	a-	4.e\	4.g\
.	.	.	16a\)	.	.	.	.	.	.
!	!	!LO:TX:b:i:t=|	!	!	!	!	!	!	!
8r	.	8g/	(16bb\	.	.	8gg\	.	.	.
.	.	.	16a\)	.	.	.	.	.	.
!	!	!LO:TX:b:i:t=|	!	!	!	!	!	!	!
8AA/	7	8e/J	(16gg\	.	.	8ee\J	.	.	.
.	.	.	16a\JJ)	.	.	.	.	.	.
=55	=55	=55	=55	=55	=55	=55	=55	=55	=55
!	!	!LO:TX:b:i:t=|	!	!	!	!	!	!	!
8AA/	6 4	8d/L	(16ff#\LL	4.A\_	.	8dd\L	.	4.d\	4.f#\
.	.	.	16a\)	.	.	.	.	.	.
!	!	!LO:TX:b:i:t=|	!	!	!	!	!	!	!
8r	.	8f#/	(16aa\	.	.	8ff#\	.	.	.
.	.	.	16a\)	.	.	.	.	.	.
!	!	!LO:TX:b:i:t=|	!	!	!	!	!	!	!
8AA/	6 4	8d/J	(16ff#\	.	.	8dd\J	.	.	.
.	.	.	16a\JJ)	.	.	.	.	.	.
!	!	!	!	!	!	!LO:LB:g=original	!	!	!
=56	=56	=56	=56	=56	=56	=56	=56	=56	=56
!	!	!LO:TX:b:i:t=|	!	!	!	!	!	!	!
8AA/	5 3	8c#/L	(16ee\LL	4.A\_	.	8cc#\L	.	4.A/	4.e\
.	.	.	16a\)	.	.	.	.	.	.
!	!	!LO:TX:b:i:t=|	!	!	!	!	!	!	!
8r	.	8e/	(16gg\	.	.	8ee\	.	.	.
.	.	.	16a\)	.	.	.	.	.	.
!	!	!LO:TX:b:i:t=|	!	!	!	!	!	!	!
8AA/	7	8c#/J	(16ee\	.	.	8cc#\J	.	.	.
.	.	.	16a\JJ)	.	.	.	.	.	.
!!linebreak:original
=57	=57	=57	=57	=57	=57	=57	=57	=57	=57
!	!	!LO:TX:b:i:t=|	!	!	!	!	!	!	!
8AA/	6 4	8d/L	(16ff#\LL	4.A\_	-men	8dd\L	.	4.d\	4.e\
.	.	.	16a\)	.	.	.	.	.	.
!	!	!LO:TX:b:i:t=|	!	!	!	!	!	!	!
8r	.	8f#/	(16aa\	.	.	8ff#\	.	.	.
.	.	.	16a\)	.	.	.	.	.	.
!	!	!LO:TX:b:i:t=|	!	!	!	!	!	!	!
8AA/	6 4	8d/J	(16ff#\	.	.	8dd\J	.	.	.
.	.	.	16a\JJ)	.	.	.	.	.	.
!LO:LB:g=original	!	!	!	!	!	!	!	!	!
=58	=58	=58	=58	=58	=58	=58	=58	=58	=58
!	!	!LO:TX:b:i:t=|	!	!	!	!	!	!	!
8AA/	7 3	8e/L	(16gg\LL	4.A\_	a-	8ee\L	.	4.e\	4.g\
.	.	.	16a\)	.	.	.	.	.	.
!	!	!LO:TX:b:i:t=|	!	!	!	!	!	!	!
8r	.	8g/	(16bb\	.	.	8ff#\	.	.	.
.	.	.	16a\)	.	.	.	.	.	.
!	!	!LO:TX:b:i:t=|	!	!	!	!	!	!	!
8AA/	7	8e/J	(16gg\	.	.	8ee\J	.	.	.
.	.	.	16a\JJ)	.	.	.	.	.	.
=59	=59	=59	=59	=59	=59	=59	=59	=59	=59
8AA/	6 4	8d/L	(16ff#\LL	4.A\_	.	8dd\L	.	4.d\	4.f#\
.	.	.	16a\)	.	.	.	.	.	.
8r	.	8f#/	(16aa\	.	.	8ff#\	.	.	.
.	.	.	16a\)	.	.	.	.	.	.
8AA/	6 4	8d/J	(16ff#\	.	.	8dd\J	.	.	.
.	.	.	16a\JJ)	.	.	.	.	.	.
!	!	!LO:LB:g=original	!	!	!	!	!	!	!
=60	=60	=60	=60	=60	=60	=60	=60	=60	=60
!	!	!LO:TX:b:i:t=|	!	!	!	!	!	!	!
8AA/	5 3	8c#/L	(16ee\LL	4.A\_	.	8cc#\L	.	4.A/	4.e\
.	.	.	16a\)	.	.	.	.	.	.
!	!	!LO:TX:b:i:t=|	!	!	!	!	!	!	!
8r	.	8e/	(16gg\	.	.	8ee\	.	.	.
.	.	.	16a\)	.	.	.	.	.	.
!	!	!LO:TX:b:i:t=|	!	!	!	!	!	!	!
8AA/	7	8c#/J	(16ee\	.	.	8cc#\J	.	.	.
.	.	.	16a\JJ)	.	.	.	.	.	.
!	!	!	!LO:LB:g=original	!	!	!	!	!	!
=61	=61	=61	=61	=61	=61	=61	=61	=61	=61
8AA/	6 4	8d/L	(16ff#\LL	4.A\]	-men	8dd\L	-men	4.d\	4.f#\
.	.	.	16a\)	.	.	.	.	.	.
8r	.	8f#/	(16aa\	.	.	8ff#\	.	.	.
.	.	.	16a\)	.	.	.	.	.	.
8AA/	6 4	8d/J	(16ff#\	.	.	8dd\J	.	.	.
.	.	.	16a\JJ)	.	.	.	.	.	.
=62	=62	=62	=62	=62	=62	=62	=62	=62	=62
!	!	!	!	!LO:TX:t=P:problem=brak nuty/taktu,żeby się zgadzało	!	!	!	!LO:TX:a:t=2	!LO:TX:a:t=2
4.AA/	7 3	16ee\LL	16gg\LL	4.ryy	.	4.cc#\	a-	2.r	2.r
.	.	(16dd\	16ff#\	.	.	.	.	.	.
.	.	16ee\	16gg\	.	.	.	.	.	.
.	.	16ff#\	16aa\	.	.	.	.	.	.
.	.	16gg\	16bb\	.	.	.	.	.	.
.	.	16ee\JJ)	16ccc#\JJ	.	.	.	.	.	.
=63	=63	=63	=63	=63	=63	=63	=63	=63	=63
4BB/	5	4dd\	8ddd\L	4B\	a-	4dd\	-men	.	.
.	.	.	16ccc#\L	.	.	.	.	.	.
.	.	.	16bb\	.	.	.	.	.	.
8C#/	6 5	8ee\	16aa\	8c#\	-men	8ee\	.	.	.
.	.	.	16gg\JJ	.	.	.	.	.	.
!	!	!	!	!	!	!	!	!LO:LB:g=original	!
=64	=64	=64	=64	=64	=64	=64	=64	=64	=64
!	!	!	!	!	!	!	!	!LO:TX:t=P:mixedbam:problem	!
8D/L	.	8b\L	8ff#\L	8d\L	a-	8dd\L	a-	8d\L	8f#\L
.	.	8qqff#/	8qqaa/	.	.	.	.	.	.
8GG/	6	8ee\	8gg\	8G\	.	8ee\	.	8d\	8f#\
.	.	8qqee/	8qqff#/	.	.	.	.	.	.
8AA/J	3	8dd\J	8ee\J	8A\J	.	8cc#\J	.	8A/J	8e\J
=65	=65	=65	=65	=65	=65	=65	=65	=65	=65
.	.	8qqcc#/	8qqee/	.	.	.	.	.	.
(16D\LL	.	4dd\	4dd\	4D/	-men	4dd\	-men	4F#/	4d\
16F#\	.	.	.	.	.	.	.	.	.
16E\)	.	.	.	.	.	.	.	.	.
!LO:TX:a:t=|	!	!	!	!	!	!	!	!	!
16D\	.	.	.	.	.	.	.	.	.
!LO:TX:a:t=|	!	!	!	!	!	!	!	!	!
16C#\	.	8r	8r	8r	.	8r	.	8r	8r
!LO:TX:a:t=|	!	!	!	!	!	!	!	!	!
16BB\JJ	.	.	.	.	.	.	.	.	.
!!pagebreak:original
!	!	!	!	!	!	!LO:LB:g=original	!	!	!
=66	=66	=66	=66	=66	=66	=66	=66	=66	=66
*	*	*	*	*	*ij	*	*	*	*
4.AA/	7	16e/LL	(8gg\L	4.A\	a-	4.cc#\	a-	4.e\	4.g\
.	.	(16a/	.	.	.	.	.	.	.
.	.	16g/	8ee\)	.	.	.	.	.	.
.	.	16a/	.	.	.	.	.	.	.
!	!	!	!LO:TX:a:t=|	!	!	!	!	!	!
.	.	16g/	8cc#\J	.	.	.	.	.	.
.	.	16a/JJ)	.	.	.	.	.	.	.
=67	=67	=67	=67	=67	=67	=67	=67	=67	=67
4DD/	.	(16f#/LL	(8dd\L	4d\	-men	4dd\	-men	4.d\	4.f#\
*	*	*	*	*	*Xij	*	*	*	*
.	.	16a/	.	.	.	.	.	.	.
.	.	16f#/	8ff#\)	.	.	.	.	.	.
.	.	16a/	.	.	.	.	.	.	.
!	!	!	!LO:TX:a:t=|	!	!	!	!	!	!
8r	.	16f#/)	8aa\J	8r	.	8r	.	.	.
.	.	16a/JJ	.	.	.	.	.	.	.
!	!	!LO:LB:g=original	!	!	!	!	!	!	!LO:LB:g=original
=68	=68	=68	=68	=68	=68	=68	=68	=68	=68
!	!	!	!	!	!	!	!	!LO:SIC:v:s=4.G	!LO:SIC:v:s=4.e
*	*	*	*	*	*	*	*ij	*	*
4.AA/	7	16e/LL	(8gg\L	4.A\	a-	4.cc#\	a-	4.F#/	4.d\
.	.	16a/	.	.	.	.	.	.	.
.	.	(16g/	8ee\)	.	.	.	.	.	.
.	.	16a/	.	.	.	.	.	.	.
!	!	!	!LO:TX:a:t=|	!	!	!	!	!	!
.	.	16g/	8cc#\J	.	.	.	.	.	.
.	.	16a/JJ)	.	.	.	.	.	.	.
!	!	!	!LO:LB:g=original	!	!	!	!	!	!
=69	=69	=69	=69	=69	=69	=69	=69	=69	=69
4DD/	.	(16f#/LL	(8dd\L	4d\	-men	4dd\	-men	4.d\	4.f#\
.	.	16a/	.	.	.	.	.	.	.
.	.	16f#/	8ff#\)	.	.	.	.	.	.
.	.	16a/	.	.	.	.	.	.	.
!	!	!	!LO:TX:a:t=|	!	!	!	!	!	!
8r	.	16f#/)	8aa\J	8r	.	8r	.	.	.
.	.	16a/JJ	.	.	.	.	.	.	.
=70	=70	=70	=70	=70	=70	=70	=70	=70	=70
!LO:TX:b:i:t=|	!	!	!	!	!	!	!	!	!
8AA/L	7	16e/LL	(8gg\L	4A\	a	4.cc#\	a-	4A/	4e\
.	.	(16a/	.	.	.	.	.	.	.
!LO:TX:b:i:t=|	!	!	!	!	!	!	!	!	!
8AA/	.	16g/	8ee\)	.	.	.	.	.	.
.	.	16a/	.	.	.	.	.	.	.
!LO:TX:b:i:t=|	!	!	!LO:TX:a:t=|	!	!	!	!	!	!
8AA/J	.	16g/	8cc#\J	8A\	.	.	.	8r	8r
.	.	16a/JJ)	.	.	.	.	.	.	.
!LO:LB:g=original	!	!	!	!	!	!	!	!	!
=71	=71	=71	=71	=71	=71	=71	=71	=71	=71
*	*	*^	*	*	*	*	*	*	*
!	!	!	!	!LO:TX:t=P:problem=mixedbeam	!	!	!	!	!	!
4.D\	.	4.a/	4.f#\	8dd\L	4.D\	a-	4dd\	-men	4F#/	4d\
*	*	*	*	*	*	*	*	*Xij	*	*
.	.	.	.	8f#/	.	.	.	.	.	.
.	.	.	.	8dd\J	.	.	8r	.	8r	8r
*	*	*v	*v	*	*	*	*	*	*	*
=72	=72	=72	=72	=72	=72	=72	=72	=72	=72
!	!	!	!	!	!	!	!	!LO:TX:a:t=7	!LO:TX:a:t=7
4.E\	6	8g\L	(16cc#\LL	4.E\	.	8r	.	1.r	1.r
.	.	.	16b\)	.	.	.	.	.	.
!	!	!	!LO:TX:a:t=|	!	!	!	!	!	!
.	.	16cc#\L	16a\	.	.	16cc#\LL	a-	.	.
!	!	!	!LO:TX:a:t=|	!	!	!	!	!	!
.	.	16b\	16g\	.	.	16b\	.	.	.
!	!	!	!LO:TX:a:t=|	!	!	!	!	!	!
.	.	16a\	16f#\	.	.	16a\	.	.	.
!	!	!	!LO:TX:a:t=|	!	!	!	!	!	!
.	.	16g\JJ	16e\JJ	.	.	16g\JJ	.	.	.
=73	=73	=73	=73	=73	=73	=73	=73	=73	=73
4.F#\	6	8a\L	(16dd\LL	4.F#\	.	8f#\L	.	.	.
.	.	.	16cc#\)	.	.	.	.	.	.
!	!	!	!LO:TX:a:t=|	!	!	!	!	!	!
.	.	16dd\L	16b\	.	.	16dd\L	.	.	.
!	!	!	!LO:TX:a:t=|	!	!	!	!	!	!
.	.	16cc#\	16a\	.	.	16cc#\	.	.	.
!	!	!	!LO:TX:a:t=|	!	!	!	!	!	!
.	.	16b\	16g\	.	.	16b\	.	.	.
!	!	!	!LO:TX:a:t=|	!	!	!	!	!	!
.	.	16a\JJ	16f#\JJ	.	.	16a\JJ	.	.	.
=74	=74	=74	=74	=74	=74	=74	=74	=74	=74
!	!	!	!LO:TX:t=P:problem=szesnastki w 74 i 75 takcie prawdopodobnie powinny być sekundę niżej	!	!	!	!	!	!
4.G\	6	8b\L	(8ee\L	4.G\	.	8g\L	.	.	.
!	!	!	!LO:SIC:v:s=16cc#	!	!	!	!	!	!
.	.	16ee\L	16dd\L	.	.	16ee\L	.	.	.
!	!	!	!LO:SIC:v:s=16b	!	!	!	!	!	!
.	.	16dd\	16cc#\	.	.	16dd\	.	.	.
!	!	!	!LO:SIC:v:s=16a	!	!	!	!	!	!
.	.	16cc#\	16b\)	.	.	16cc#\	.	.	.
!	!	!	!LO:SIC:v:s=16g	!	!	!	!	!	!
!	!	!	!LO:TX:a:t=|	!	!	!	!	!	!
.	.	16b\JJ	16a\JJ	.	.	16b\JJ	.	.	.
=75	=75	=75	=75	=75	=75	=75	=75	=75	=75
4.AA/	6	8cc#\L	(8ff#\L	4.A\	.	8a\L	.	.	.
!	!	!	!LO:SIC:v:s=16dd	!	!	!	!	!	!
.	.	16ff#\L	16ee\L)	.	.	16ff#\L	.	.	.
!	!	!	!LO:SIC:v:s=16cc#	!	!	!	!	!	!
!	!	!	!LO:TX:a:t=|	!	!	!	!	!	!
.	.	16ee\	16dd\	.	.	16ee\	.	.	.
!	!	!	!LO:SIC:v:s=16b	!	!	!	!	!	!
!	!	!	!LO:TX:a:t=|	!	!	!	!	!	!
.	.	16dd\	16cc#\	.	.	16dd\	.	.	.
!	!	!	!LO:SIC:v:s=16a	!	!	!	!	!	!
!	!	!	!LO:TX:a:t=|	!	!	!	!	!	!
.	.	16cc#\JJ	16b\JJ	.	.	16cc#\JJ	.	.	.
!!linebreak:original
!	!	!LO:LB:g=original	!	!	!	!	!	!	!
=76	=76	=76	=76	=76	=76	=76	=76	=76	=76
4BB/	6	4dd\	(16gg\LL	4B\	.	4dd\	.	2.r	2.r
.	.	.	16ff#\	.	.	.	.	.	.
.	.	.	16gg\)	.	.	.	.	.	.
!	!	!	!LO:TX:a:t=|	!	!	!	!	!	!
.	.	.	16bb\	.	.	.	.	.	.
!	!	!	!LO:TX:a:t=|	!	!	!	!	!	!
8C#/	6 5	(16ee\LL	16aa\	8c#\	-men	16ee\LL	.	.	.
!	!	!	!LO:TX:a:t=|	!	!	!	!	!	!
.	.	16cc#\JJ)	16gg\JJ	.	.	16cc#\JJ	.	.	.
!	!	!	!LO:LB:g=original	!	!	!LO:LB:g=original	!	!	!
=77	=77	=77	=77	=77	=77	=77	=77	=77	=77
!LO:TX:a:t=|	!	!	!	!LO:SIC:v:s=4D	!	!	!	!	!
8D\L	3	8a/L	16ff#\LL	[8E\L	a-	8a\L	.	.	.
.	.	.	16aa\	.	.	.	.	.	.
!LO:TX:a:t=|	!	!	!	!	!	!	!	!	!
8E\	6	8g/	16cc#\	8E\J]	.	8g\J	.	.	.
.	.	.	16ee\	.	.	.	.	.	.
!LO:TX:a:t=|	!	!	!	!LO:TX:a:t=|	!	!	!	!	!
8F#\J	6	8a/J	16ff#\	8F#\	-men	8a\	-men	.	.
.	.	.	16dd\JJ	.	.	.	.	.	.
=78	=78	=78	=78	=78	=78	=78	=78	=78	=78
!	!	!	!LO:TX:a:t=1	!LO:TX:a:t=1	!	!LO:TX:a:t=1	!	!	!
4.r	.	8f#/	4.r	4.r	.	4.r	.	4.r	4.r
.	.	8r	.	.	.	.	.	.	.
.	.	8r	.	.	.	.	.	.	.
=79	=79	=79	=79	=79	=79	=79	=79	=79	=79
!LO:TX:t=P:mixedbam:problem	!	!	!	!LO:TX:t=P:problem=mixedbeam	!	!	!	!LO:TX:t=P:mixedbam:problem	!LO:SIC:v:s=4g
8G\L	6	16r	(16b\LL	8G\L	a-	8b\	a-	8e\L	8f#\L
.	.	16b/LL	16gg\	.	.	.	.	.	.
8A\	6 4	16a/	16ff#\)	8A\	.	4a\	.	8d\	8f#\
!	!	!	!LO:TX:a:t=|	!	!	!	!	!	!
.	.	16g/	16ee\	.	.	.	.	.	.
!	!	!	!LO:TX:a:t=|	!	!	!	!	!	!
8AA/J	7 3	16f#/	16dd\	8AA/J	.	.	.	8A/J	8e\J
!	!	!	!LO:TX:a:t=|	!	!	!	!	!	!
.	.	16e/JJ	16cc#\JJ	.	.	.	.	.	.
=80	=80	=80	=80	=80	=80	=80	=80	=80	=80
!LO:TX:a:t=|	!	!	!	!	!	!	!	!	!
16D\LL	.	8ff#/ 8a/ 8d/	8ff#/ 8a/ 8d/	4D/	-men	4a\	-men	4d\	4f#\
(16d\	.	.	.	.	.	.	.	.	.
16c#\	.	8r	8r	.	.	.	.	.	.
16d\)	.	.	.	.	.	.	.	.	.
!LO:TX:a:t=|	!	!	!	!	!	!	!	!	!
16F#\	.	16ff#\LL	16aa\LL	8r	.	8r	.	8r	8r
!LO:TX:a:t=|	!	!	!	!	!	!	!	!	!
16A\JJ	.	16ee\JJ	16gg\JJ	.	.	.	.	.	.
!	!	!	!	!LO:LB:g=original	!	!	!	!	!
=81	=81	=81	=81	=81	=81	=81	=81	=81	=81
!LO:TX:a:t=|	!	!	!	!	!	!	!	!	!
16D\LL	.	8ff#/ 8a/ 8d/	8ff#/ 8a/ 8d/	4d\	a-	4dd\	a-	4d\	4f#\
(16d\	.	.	.	.	.	.	.	.	.
16c#\	.	8r	8r	.	.	.	.	.	.
16d\)	.	.	.	.	.	.	.	.	.
!LO:TX:a:t=|	!	!	!	!	!	!	!	!	!
16F#\	.	16ff#\LL	16aa\LL	8r	.	8r	.	8r	8r
!LO:TX:a:t=|	!	!	!	!	!	!	!	!	!
16A\JJ	.	16ee\JJ	16gg\JJ	.	.	.	.	.	.
=82	=82	=82	=82	=82	=82	=82	=82	=82	=82
!LO:TX:a:t=|	!	!	!	!	!	!	!	!	!
16D\LL	.	8ff#/ 8a/ 8d/	8ff#/ 8a/ 8d/	4d\	-men	4ff#\	-men	4d\	4f#\
(16d\	.	.	.	.	.	.	.	.	.
16c#\	.	8r	8r	.	.	.	.	.	.
16d\)	.	.	.	.	.	.	.	.	.
!LO:TX:a:t=|	!	!	!	!	!	!	!	!	!
16F#\	.	16ff#\LL	16aa\LL	8r	.	8r	.	8r	8r
!LO:TX:a:t=|	!	!	!	!	!	!	!	!	!
16A\JJ	.	16ee\JJ	16gg\JJ	.	.	.	.	.	.
!	!	!LO:LB:g=original	!	!	!	!	!	!	!
=83	=83	=83	=83	=83	=83	=83	=83	=83	=83
8D\L	.	8dd\L	8ff#\L 8a\ 8d\	8D\L	a-	8ff#\L	a-	8d\L	8f#\L
8F#\	.	8ff#\ 8a\ 8d\	8ddd\ 8a\ 8d\	8F#\J	.	8dd\	.	8d\	8f#\
8A\J	.	8ff#\J 8a\ 8d\	8ddd\J 8a\ 8d\	8A\	.	8a\J	.	8d\J	8f#\J
=84	=84	=84	=84	=84	=84	=84	=84	=84	=84
4D\	.	4ff#\ 4a\ 4d\	4ddd\ 4a\ 4d\	4D/	-men	4f#/	-men	4d\	4f#\
8r	.	8r	8r	8r	.	8r	.	8r	8r
==	==	==	==	==	==	==	==	==	==
*-	*-	*-	*-	*-	*-	*-	*-	*-	*-
!!!system-decoration: [(s1,s2)][(s3,s4)][(s5,s6)][(s7)]
!!!RDF**kern: > = above
!!!RDF**kern: < = below
!!!ENC: Anastazja Marusiak
!!!END: 2021-11-17
!!!ENC: Leszek Kubiak
!!!END: 2021-11-25
!!!YEC: Copyright 2022 Narodowy Instytut Fryderyka Chopina (https://polishscores.org)
!!!YEM: License CC-BY-4.0 (https://creativecommons.org/licenses/by/4.0)
